src/assets/Camera.svg

<svg width="41" height="41" viewBox="0 0 41 41" fill="none" xmlns="http://www.w3.org/2000/svg">
<path fill-rule="evenodd" clip-rule="evenodd" d="M30.688 8.75558C30.688 7.80164 29.9147 7.02832 28.9607 7.02832H12.0393C11.0853 7.02832 10.312 7.80164 10.312 8.75558C10.312 9.70951 9.53869 10.4828 8.58475 10.4828H2.5C1.39543 10.4828 0.5 11.3783 0.5 12.4828V32.2163C0.5 33.3209 1.39543 34.2163 2.5 34.2163H38.5C39.6046 34.2163 40.5 33.3209 40.5 32.2163V12.4828C40.5 11.3783 39.6046 10.4828 38.5 10.4828H32.4153C31.4613 10.4828 30.688 9.70951 30.688 8.75558ZM29.9833 21.6287C29.9833 26.8662 25.7375 31.112 20.5 31.112C15.2625 31.112 11.0167 26.8662 11.0167 21.6287C11.0167 16.3912 15.2625 12.1454 20.5 12.1454C25.7375 12.1454 29.9833 16.3912 29.9833 21.6287ZM19.7663 28.2524C19.3521 28.2524 19.0163 27.9167 19.0163 27.5024V23.8624C19.0163 23.4482 18.6805 23.1124 18.2663 23.1124H14.6262C14.212 23.1124 13.8762 22.7766 13.8762 22.3624V20.8685C13.8762 20.4543 14.212 20.1185 14.6262 20.1185H18.2663C18.6805 20.1185 19.0163 19.7827 19.0163 19.3685V15.7549C19.0163 15.3407 19.3521 15.0049 19.7663 15.0049H21.2602C21.6744 15.0049 22.0102 15.3407 22.0102 15.7549V19.3685C22.0102 19.7827 22.346 20.1185 22.7602 20.1185H26.3738C26.788 20.1185 27.1238 20.4543 27.1238 20.8685V22.3624C27.1238 22.7766 26.788 23.1124 26.3738 23.1124H22.7602C22.346 23.1124 22.0102 23.4482 22.0102 23.8624V27.5024C22.0102 27.9167 21.6744 28.2524 21.2602 28.2524H19.7663Z" fill="white" fill-opacity="0.65"/>
</svg>

<svg xmlns="http://www.w3.org/2000/svg" width="41" height="41" fill="none"><path fill="#fff" fill-opacity=".65" fill-rule="evenodd" d="M30.688 8.756c0-.954-.773-1.728-1.727-1.728H12.039c-.954 0-1.727.774-1.727 1.728s-.773 1.727-1.727 1.727H2.5a2 2 0 0 0-2 2v19.733a2 2 0 0 0 2 2h36a2 2 0 0 0 2-2V12.483a2 2 0 0 0-2-2h-6.085a1.727 1.727 0 0 1-1.727-1.727m-.705 12.873a9.483 9.483 0 1 1-18.966 0 9.483 9.483 0 1 1 18.966 0m-10.217 6.623a.75.75 0 0 1-.75-.75v-3.64a.75.75 0 0 0-.75-.75h-3.64a.75.75 0 0 1-.75-.75V20.87a.75.75 0 0 1 .75-.75h3.64a.75.75 0 0 0 .75-.75v-3.614a.75.75 0 0 1 .75-.75h1.494a.75.75 0 0 1 .75.75v3.614c0 .414.336.75.75.75h3.614a.75.75 0 0 1 .75.75v1.493a.75.75 0 0 1-.75.75H22.76a.75.75 0 0 0-.75.75v3.64a.75.75 0 0 1-.75.75z" clip-rule="evenodd"/></svg>
